;FLAVOR:Marlin
;TIME:7142 
;Filament used: 3.78488m (CURA)
;11.2886 g (CURA)
;Layer height: 0.2
;MINX:80.44
;MINY:98.123
;MINZ:0.2
;MAXX:147.299
;MAXY:136.878
;MAXZ:48
;TARGET_MACHINE.NAME:Creality Ender-3
;Generated with Cura_SteamEngine 5.12.0
M140 S50
M105
M190 S50
M104 S200
M105
M109 S200
; Ender 3 Custom Start G-code
G92 E0 ; Reset Extruder
G28 ; Home all axes
G1 Z2.0 F3000 ; Move Z Axis up little to prevent scratching of Heat Bed
G1 X0.1 Y20 Z0.3 F5000.0 ; Move to start position
G1 X0.1 Y200.0 Z0.3 F1500.0 E15 ; Draw the first line
G1 X0.4 Y200.0 Z0.3 F5000.0 ; Move to side a little
G1 X0.4 Y20 Z0.3 F1500.0 E30 ; Draw the second line
G92 E0 ; Reset Extruder
G1 Z2.0 F3000 ; Move Z Axis up little to prevent scratching of Heat Bed
G1 X5 Y20 Z0.3 F5000.0 ; Move over to prevent blob squish
M82 ;absolute extrusion mode
G92 E0
G92 E0
G1 F2700 E-5
;LAYER_COUNT:240
;LAYER:0
M107
G0 F6000 X84.986 Y102.629 Z0.2
;TYPE:SKIRT
G1 F2700 E0
G1 F1200 X85.779 Y102.02 E0.03326
G1 X86.596 Y101.474 E0.06594
G1 X87.617 Y100.928 E0.10445
G1 X88.286 Y100.632 E0.12878
G1 X88.604 Y100.505 E0.14017
G1 X89.522 Y100.184 E0.17251
G1 X90.368 Y99.965 E0.20158
G1 X91.025 Y99.831 E0.22388
G1 X91.859 Y99.716 E0.25188
G1 X92.38 Y99.668 E0.26929
G1 X115.44 Y98.195 E1.03783
G1 X116.701 Y98.137 E1.07981
G1 X117.299 Y98.123 E1.09971
G1 X118.092 Y98.13 E1.12608
G1 X119.388 Y98.194 E1.16924
G1 X119.808 Y98.225 E1.18325
G1 X120.61 Y98.306 E1.21006
G1 X121.435 Y98.414 E1.23773
G1 X122.126 Y98.523 E1.261
G1 X123.243 Y98.744 E1.29887
G1 X124.011 Y98.923 E1.3251
G1 X125.071 Y99.216 E1.36168
G1 X125.602 Y99.379 E1.38015
G1 X126.524 Y99.694 E1.41256
G1 X126.987 Y99.864 E1.42896
G1 X127.695 Y100.15 E1.45436
G1 X128.621 Y100.56 E1.48804
G1 X129.508 Y100.986 E1.52077
G1 X130.284 Y101.391 E1.54988
G1 X130.787 Y101.681 E1.5692
G1 X131.812 Y102.305 E1.60911
G1 X132.346 Y102.65 E1.63025
G1 X132.75 Y102.928 E1.64656
G1 X133.474 Y103.463 E1.67651
G1 X134.367 Y104.165 E1.71429
G1 X134.886 Y104.594 E1.73668
G1 X135.237 Y104.903 E1.75223
G1 X135.743 Y105.379 E1.77534
G1 X136.405 Y106.03 E1.80622
G1 X136.924 Y106.565 E1.83101
G1 X137.247 Y106.919 E1.84695
G1 X137.665 Y107.398 E1.8681
G1 X138.013 Y107.818 E1.88624
G1 X138.57 Y108.529 E1.91628
G1 X139.178 Y109.354 E1.95036
G1 X139.637 Y110.023 E1.97735
G1 X140.03 Y110.635 E2.00154
G1 X140.498 Y111.428 E2.03217
G1 X140.94 Y112.283 E2.06418
G1 X141.183 Y112.853 E2.08479
G1 X141.391 Y113.395 E2.1041
G1 X141.684 Y114.322 E2.13643
G1 X141.896 Y115.265 E2.16858
G1 X142.012 Y116.046 E2.19484
G1 X142.088 Y116.946 E2.22488
G1 X142.07 Y118.203 E2.26669
G1 X142.041 Y118.588 E2.27953
G1 X141.927 Y119.555 E2.31192
G1 X141.73 Y120.497 E2.34393
G1 X141.558 Y121.098 E2.36472
G1 X141.254 Y121.963 E2.39522
G1 X140.89 Y122.824 E2.42631
G1 X140.545 Y123.493 E2.45134
G1 X140.253 Y123.987 E2.47043
G1 X139.77 Y124.761 E2.50077
G1 X139.276 Y125.502 E2.53039
G1 X138.592 Y126.449 E2.56925
G1 X138.216 Y126.937 E2.58974
G1 X137.898 Y127.322 E2.60635
G1 X137.34 Y127.967 E2.63471
G1 X136.633 Y128.731 E2.66933
G1 X135.655 Y129.705 E2.71524
G1 X135.299 Y130.04 E2.7315
G1 X134.87 Y130.413 E2.75041
G1 X133.712 Y131.36 E2.80016
G1 X133.139 Y131.79 E2.82399
G1 X132.608 Y132.17 E2.84571
G1 X132.157 Y132.476 E2.86384
G1 X131.283 Y133.024 E2.89815
G1 X130.921 Y133.238 E2.91213
G1 X129.844 Y133.841 E2.95319
G1 X129.129 Y134.207 E2.9799
G1 X128.536 Y134.488 E3.00173
G1 X127.544 Y134.915 E3.03765
G1 X127.015 Y135.123 E3.05655
G1 X125.7 Y135.589 E3.10296
G1 X124.649 Y135.9 E3.13941
G1 X123.566 Y136.177 E3.17659
G1 X122.944 Y136.315 E3.19778
G1 X121.901 Y136.507 E3.23306
G1 X121.48 Y136.574 E3.24723
G1 X120.234 Y136.737 E3.28903
G1 X119.278 Y136.822 E3.32095
G1 X117.938 Y136.87 E3.36555
G1 X117.257 Y136.878 E3.3882
G1 X116.762 Y136.867 E3.40467
G1 X115.141 Y136.788 E3.45865
G1 X92.921 Y135.374 E4.19918
G1 X92.381 Y135.331 E4.2172
G1 X91.63 Y135.253 E4.24231
G1 X91.54 Y135.232 E4.24539
G1 X90.846 Y135.138 E4.26868
G1 X89.804 Y134.895 E4.30427
G1 X89.085 Y134.675 E4.32927
G1 X88.179 Y134.336 E4.36145
G1 X87.109 Y133.813 E4.40106
G1 X86.543 Y133.483 E4.42285
G1 X86.257 Y133.303 E4.43409
G1 X85.464 Y132.76 E4.46606
G1 X84.496 Y131.941 E4.50823
G1 X84.048 Y131.508 E4.52895
G1 X83.435 Y130.845 E4.55899
G1 X82.792 Y130.01 E4.59404
G1 X82.172 Y129.014 E4.63306
G1 X81.749 Y128.218 E4.66304
G1 X81.252 Y127.065 E4.7048
G1 X80.987 Y126.273 E4.73258
G1 X80.747 Y125.371 E4.76362
G1 X80.618 Y124.684 E4.78687
G1 X80.526 Y123.985 E4.81032
G1 X80.465 Y123.018 E4.84255
G1 X80.44 Y121.649 E4.88809
G1 X80.441 Y112.871 E5.18005
G1 X80.451 Y112.239 E5.20107
G1 X80.508 Y111.275 E5.23319
G1 X80.542 Y110.951 E5.24402
G1 X80.773 Y109.592 E5.28987
G1 X80.855 Y109.241 E5.30186
G1 X81.121 Y108.305 E5.33422
G1 X81.459 Y107.418 E5.3658
G1 X81.775 Y106.718 E5.39134
G1 X82.227 Y105.854 E5.42377
G1 X82.737 Y105.057 E5.45524
G1 X83.632 Y103.939 E5.50288
G1 X84.277 Y103.272 E5.53374
G1 X84.986 Y102.629 E5.56557
G0 F6000 X85.255 Y102.925
G1 F1200 X86.002 Y102.352 E5.59688
G1 X86.785 Y101.827 E5.62824
G1 X87.806 Y101.281 E5.66675
G1 X88.435 Y101.003 E5.68962
G1 X88.737 Y100.882 E5.70044
G1 X89.622 Y100.571 E5.73164
G1 X90.448 Y100.357 E5.76002
G1 X91.105 Y100.223 E5.78232
G1 X91.896 Y100.114 E5.80888
G1 X92.405 Y100.067 E5.82588
G1 X115.458 Y98.595 E6.59419
G1 X116.711 Y98.537 E6.63591
G1 X117.295 Y98.523 E6.65534
G1 X118.072 Y98.53 E6.68118
G1 X119.359 Y98.593 E6.72404
G1 X119.768 Y98.623 E6.73768
G1 X120.558 Y98.703 E6.76409
G1 X121.373 Y98.809 E6.79142
G1 X122.048 Y98.915 E6.81415
G1 X123.152 Y99.134 E6.85158
G1 X123.904 Y99.309 E6.87726
G1 X124.964 Y99.602 E6.91384
G1 X125.473 Y99.758 E6.93155
G1 X126.386 Y100.069 E6.96363
G1 X126.837 Y100.235 E6.97961
G1 X127.533 Y100.516 E7.00458
G1 X128.448 Y100.921 E7.03786
G1 X129.323 Y101.341 E7.07014
G1 X130.099 Y101.746 E7.09925
G1 X130.579 Y102.023 E7.11769
G1 X131.595 Y102.641 E7.15724
G1 X132.119 Y102.979 E7.17798
G1 X132.512 Y103.25 E7.19386
G1 X133.227 Y103.778 E7.22342
G1 X134.112 Y104.473 E7.26085
G1 X134.622 Y104.895 E7.28286
G1 X134.963 Y105.194 E7.29795
G1 X135.463 Y105.664 E7.32077
G1 X136.118 Y106.308 E7.35132
G1 X136.629 Y106.835 E7.37574
G1 X136.946 Y107.182 E7.39137
G1 X137.357 Y107.653 E7.41216
G1 X137.698 Y108.065 E7.42995
G1 X138.248 Y108.766 E7.45958
G1 X138.848 Y109.58 E7.49322
G1 X139.301 Y110.24 E7.51984
G1 X139.686 Y110.838 E7.5435
G1 X140.143 Y111.612 E7.57339
G1 X140.572 Y112.44 E7.60441
G1 X140.81 Y112.997 E7.62456
G1 X141.01 Y113.516 E7.64306
G1 X141.294 Y114.41 E7.67425
G1 X141.5 Y115.324 E7.70542
G1 X141.613 Y116.08 E7.73084
G1 X141.689 Y116.98 E7.76088
G1 X141.671 Y118.174 E7.8006
G1 X141.644 Y118.542 E7.81287
G1 X141.535 Y119.474 E7.84408
G1 X141.345 Y120.387 E7.8751
G1 X141.173 Y120.988 E7.89589
G1 X140.885 Y121.808 E7.9248
G1 X140.534 Y122.641 E7.95486
G1 X140.2 Y123.29 E7.97914
G1 X139.914 Y123.775 E7.99786
G1 X139.437 Y124.539 E8.02782
G1 X138.952 Y125.268 E8.05694
G1 X138.275 Y126.205 E8.09539
G1 X137.908 Y126.682 E8.11541
G1 X137.595 Y127.06 E8.13173
G1 X137.046 Y127.695 E8.15965
G1 X136.339 Y128.459 E8.19427
G1 X135.38 Y129.414 E8.23929
G1 X135.037 Y129.738 E8.25498
G1 X134.617 Y130.103 E8.27349
G1 X133.472 Y131.04 E8.3227
G1 X132.906 Y131.465 E8.34624
G1 X132.383 Y131.839 E8.36762
G1 X131.945 Y132.137 E8.38524
G1 X131.079 Y132.68 E8.41924
G1 X130.726 Y132.889 E8.43289
G1 X129.662 Y133.485 E8.47345
G1 X128.957 Y133.846 E8.49979
G1 X128.378 Y134.121 E8.52111
G1 X127.398 Y134.543 E8.5566
G1 X126.881 Y134.746 E8.57507
G1 X125.586 Y135.205 E8.62077
G1 X124.55 Y135.512 E8.65671
G1 X123.467 Y135.789 E8.69389
G1 X122.872 Y135.922 E8.71417
G1 X121.839 Y136.112 E8.7491
G1 X121.428 Y136.177 E8.76294
G1 X120.182 Y136.34 E8.80474
G1 X119.263 Y136.422 E8.83542
G1 X117.929 Y136.471 E8.87982
G1 X117.266 Y136.478 E8.90188
G1 X116.781 Y136.467 E8.91801
G1 X115.166 Y136.389 E8.97179
G1 X92.953 Y134.975 E9.71209
G1 X92.422 Y134.933 E9.72981
G1 X91.671 Y134.855 E9.75492
G1 X91.634 Y134.842 E9.75622
G1 X90.937 Y134.748 E9.77962
G1 X89.895 Y134.505 E9.8152
G1 X89.225 Y134.3 E9.83851
G1 X88.319 Y133.961 E9.87068
G1 X87.31 Y133.467 E9.90805
G1 X86.756 Y133.144 E9.92938
G1 X86.47 Y132.964 E9.94062
G1 X85.722 Y132.454 E9.97073
G1 X84.774 Y131.653 E10.01201
G1 X84.342 Y131.236 E10.03198
G1 X83.729 Y130.573 E10.06201
G1 X83.132 Y129.799 E10.09452
G1 X82.512 Y128.803 E10.13354
G1 X82.116 Y128.059 E10.16157
G1 X81.631 Y126.938 E10.2022
G1 X81.374 Y126.17 E10.22913
G1 X81.134 Y125.268 E10.26018
G1 X81.015 Y124.632 E10.2817
G1 X80.923 Y123.933 E10.30515
G1 X80.865 Y123.011 E10.33588
G1 X80.84 Y121.649 E10.38118
G1 X80.841 Y112.877 E10.67294
G1 X80.85 Y112.263 E10.69337
G1 X80.906 Y111.317 E10.72488
G1 X80.94 Y110.993 E10.73572
G1 X81.162 Y109.683 E10.77991
G1 X81.24 Y109.35 E10.79129
G1 X81.495 Y108.447 E10.8225
G1 X81.824 Y107.582 E10.85328
G1 X82.13 Y106.903 E10.87805
G1 X82.564 Y106.07 E10.90929
G1 X83.074 Y105.273 E10.94076
G1 X83.92 Y104.217 E10.98576
G1 X84.565 Y103.55 E11.01662
G1 X85.255 Y102.925 E11.04759
G0 F6000 X85.523 Y103.222
G1 F1200 X86.225 Y102.684 E11.07701
G1 X86.974 Y102.18 E11.10703
G1 X87.995 Y101.634 E11.14554
G1 X88.585 Y101.374 E11.16699
G1 X88.87 Y101.259 E11.17721
G1 X89.722 Y100.958 E11.20726
G1 X90.528 Y100.749 E11.23496
G1 X91.185 Y100.615 E11.25726
G1 X91.933 Y100.512 E11.28237
G1 X92.43 Y100.466 E11.29897
G1 X115.477 Y98.995 E12.06708
G1 X116.721 Y98.937 E12.1085
G1 X117.291 Y98.923 E12.12746
G1 X118.053 Y98.93 E12.15281
G1 X119.33 Y98.992 E12.19533
G1 X119.728 Y99.021 E12.2086
G1 X120.507 Y99.1 E12.23465
G1 X121.311 Y99.204 E12.26161
G1 X121.97 Y99.307 E12.28379
G1 X123.061 Y99.524 E12.32079
G1 X123.797 Y99.695 E12.34592
G1 X124.857 Y99.988 E12.3825
G1 X125.344 Y100.137 E12.39944
G1 X126.248 Y100.444 E12.43119
G1 X126.687 Y100.606 E12.44676
G1 X127.371 Y100.882 E12.47129
G1 X128.275 Y101.282 E12.50417
G1 X129.138 Y101.696 E12.536
G1 X129.914 Y102.101 E12.56512
G1 X130.371 Y102.365 E12.58267
G1 X131.378 Y102.977 E12.62186
G1 X131.892 Y103.308 E12.6422
G1 X132.274 Y103.572 E12.65764
G1 X132.98 Y104.093 E12.68683
G1 X133.857 Y104.781 E12.7239
G1 X134.358 Y105.196 E12.74554
G1 X134.689 Y105.486 E12.76017
G1 X135.183 Y105.949 E12.78269
G1 X135.831 Y106.586 E12.81292
G1 X136.334 Y107.105 E12.83695
G1 X136.645 Y107.445 E12.85228
G1 X137.049 Y107.908 E12.87272
G1 X137.383 Y108.312 E12.89015
G1 X137.926 Y109.003 E12.91938
G1 X138.518 Y109.806 E12.95256
G1 X138.965 Y110.457 E12.97883
G1 X139.342 Y111.041 E13.00195
G1 X139.788 Y111.796 E13.03111
G1 X140.204 Y112.598 E13.06116
G1 X140.437 Y113.141 E13.08082
G1 X140.629 Y113.638 E13.09854
G1 X140.904 Y114.498 E13.12857
G1 X141.104 Y115.384 E13.15878
G1 X141.214 Y116.114 E13.18333
G1 X141.29 Y117.014 E13.21337
G1 X141.272 Y118.146 E13.25103
G1 X141.247 Y118.496 E13.2627
G1 X141.143 Y119.393 E13.29273
G1 X140.96 Y120.277 E13.32276
G1 X140.788 Y120.878 E13.34355
G1 X140.516 Y121.653 E13.37087
G1 X140.165 Y122.486 E13.40093
G1 X139.855 Y123.087 E13.42342
G1 X139.575 Y123.563 E13.44179
G1 X139.104 Y124.318 E13.47139
G1 X138.628 Y125.034 E13.49999
G1 X137.958 Y125.961 E13.53803
G1 X137.599 Y126.427 E13.55759
G1 X137.293 Y126.798 E13.57359
G1 X136.752 Y127.423 E13.60108
G1 X136.052 Y128.18 E13.63538
G1 X135.766 Y128.474 E13.64902
G1 X135.106 Y129.123 E13.6798
G1 X134.774 Y129.436 E13.69498
G1 X134.364 Y129.793 E13.71306
G1 X133.231 Y130.72 E13.76175
G1 X132.673 Y131.14 E13.78498
G1 X132.158 Y131.508 E13.80603
G1 X131.732 Y131.798 E13.82317
G1 X130.875 Y132.336 E13.85683
G1 X130.531 Y132.54 E13.87013
G1 X129.479 Y133.129 E13.91023
G1 X128.785 Y133.485 E13.93617
G1 X128.22 Y133.754 E13.95699
G1 X127.252 Y134.171 E13.99204
G1 X126.747 Y134.369 E14.01008
G1 X125.472 Y134.821 E14.05508
G1 X124.436 Y135.128 E14.09101
G1 X123.38 Y135.399 E14.12728
G1 X122.8 Y135.529 E14.14705
G1 X121.777 Y135.717 E14.18164
G1 X121.376 Y135.78 E14.19514
G1 X120.13 Y135.943 E14.23694
G1 X119.248 Y136.022 E14.26639
G1 X117.92 Y136.072 E14.31059
G1 X117.275 Y136.078 E14.33204
G1 X116.8 Y136.067 E14.34785
G1 X115.191 Y135.99 E14.40142
G1 X92.984 Y134.576 E15.14153
G1 X92.463 Y134.535 E15.15891
G1 X91.712 Y134.457 E15.18402
G1 X91.713 Y134.45 E15.18426
G1 X91.028 Y134.358 E15.20724
G1 X89.986 Y134.115 E15.24283
G1 X89.365 Y133.925 E15.26443
G1 X88.459 Y133.586 E15.29661
G1 X87.511 Y133.121 E15.33172
G1 X86.969 Y132.805 E15.35259
G1 X86.695 Y132.633 E15.36335
G1 X85.98 Y132.148 E15.39209
G1 X85.052 Y131.365 E15.43247
G1 X84.636 Y130.964 E15.45169
G1 X84.023 Y130.301 E15.48172
G1 X83.471 Y129.587 E15.51174
G1 X82.865 Y128.615 E15.54984
G1 X82.483 Y127.9 E15.5768
G1 X82.01 Y126.811 E15.61629
G1 X81.76 Y126.067 E15.64239
G1 X81.527 Y125.194 E15.67245
G1 X81.412 Y124.58 E15.69322
G1 X81.32 Y123.881 E15.71667
G1 X81.265 Y123.004 E15.7459
G1 X81.24 Y121.649 E15.79097
G1 X81.241 Y112.882 E16.08257
G1 X81.249 Y112.287 E16.10236
G1 X81.304 Y111.359 E16.13328
G1 X81.338 Y111.035 E16.14411
G1 X81.551 Y109.774 E16.18665
G1 X81.625 Y109.458 E16.19744
G1 X81.869 Y108.589 E16.22746
G1 X82.189 Y107.746 E16.25745
G1 X82.485 Y107.087 E16.28148
G1 X82.901 Y106.285 E16.31153
G1 X83.386 Y105.523 E16.34157
G1 X84.208 Y104.495 E16.38535
G1 X84.853 Y103.828 E16.41621
G1 X85.523 Y103.222 E16.44626
G1 F2700 E11.44626
;MESH:3DBenchy.stl
G0 F6000 X110.047 Y115.973
G0 X110.226 Y118.778
;TYPE:WALL-INNER
G1 F2700 E16.44626
G1 F1200 X110.646 Y118.769 E16.46023
G1 X111.002 Y118.721 E16.47218
G1 X111.27 Y118.515 E16.48342
G1 X111.421 Y118.233 E16.49406
G1 X111.502 Y117.83 E16.50773
G1 X111.519 Y117.452 E16.52032
G1 X111.499 Y116.992 E16.53563
G1 X111.398 Y116.594 E16.54929
G1 X111.268 Y116.364 E16.55808
G1 X111.075 Y116.203 E16.56644
G1 X110.62 Y116.159 E16.58164
G1 X110.223 Y116.148 E16.59485
G1 X110.226 Y118.778 E16.68232
G0 F6000 X109.971 Y119.196
;TYPE:WALL-OUTER
G1 F1200 X110.276 Y119.176 E16.69249
G1 X110.676 Y119.168 E16.7058
G1 X111.134 Y119.107 E16.72116
G1 X111.407 Y118.948 E16.73167
G1 X111.596 Y118.753 E16.7407
G1 X111.751 Y118.465 E16.75158
G1 X111.834 Y118.209 E16.76053
G1 X111.9 Y117.879 E16.77173
G1 X111.919 Y117.452 E16.78594
G1 X111.897 Y116.934 E16.80319
G1 X111.772 Y116.444 E16.82001
G1 X111.59 Y116.122 E16.83231
G1 X111.428 Y115.956 E16.84002
G1 X111.04 Y115.798 E16.85396
G1 X110.659 Y115.76 E16.86669
G1 X110.134 Y115.745 E16.88416
G1 X109.85 Y115.758 E16.89362
G1 X109.82 Y115.857 E16.89706
G1 X109.828 Y118.72 E16.99228
G1 X109.811 Y119.023 E17.00237
G1 X109.852 Y119.129 E17.00615
G1 X109.971 Y119.196 E17.0107
G0 F6000 X110.093 Y118.913
G0 X111.092 Y118.534
G0 X110.625 Y118.369
;TYPE:SKIN
G1 F1004.2 X110.622 Y116.561 E17.08256
G1 F1000 X110.918 Y116.589 E17.09442
G1 X111.022 Y116.75 E17.10207
G1 X111.101 Y117.048 E17.11438
G1 F995.9 X111.113 Y117.449 E17.13046
G1 F997.9 X111.102 Y117.782 E17.14378
G1 F1006.3 X111.037 Y118.098 E17.15658
G1 X110.95 Y118.262 E17.16394
G1 X110.852 Y118.337 E17.16884
G1 X110.625 Y118.369 E17.17793
G1 F2700 E12.17793
G0 F6000 X111.092 Y118.534
G0 X110.401 Y118.627
G0 X110.038 Y117.572
G0 X108.214 Y117.574
G0 X107.893 Y118.274
;TYPE:WALL-INNER
G1 F2700 E17.17793
G1 F741.9 X107.906 Y118.419 E17.18576
G1 F768 X107.916 Y118.819 E17.20656
G1 F748.8 X107.891 Y119.217 E17.22781
G1 F2700 E12.22781
G0 F6000 X108.359 Y120.528
G0 X108.634 Y120.786
G0 X111.044 Y121.114
G0 X112.601 Y120.514
G0 X114.317 Y121.632
G0 X115.628 Y120.976
G0 X117.364 Y121.01
G0 X117.604 Y120.708
G0 X119.002 Y121.317
G0 X119.459 Y121.404
G0 X119.192 Y123.182
G0 X120.85 Y123.812
G0 X122.567 Y122.208
G0 X123.415 Y120.014
G0 X123.801 Y119.361
G0 X125.047 Y121.373
G0 X126.785 Y121.366
G0 X125.433 Y122.434
G0 X123.69 Y123.435
G0 X122.519 Y123.935
G0 X120.935 Y124.427
G0 X117.5 Y124.999
G1 F2700 E17.22781
G1 F1200 X118.115 Y124.986 E17.24827
G1 X119.038 Y124.92 E17.27905
G1 X119.295 Y124.891 E17.28765
G1 X119.993 Y124.786 E17.31113
G1 X120.603 Y124.667 E17.3318
G1 X120.978 Y124.583 E17.34458
G1 X121.553 Y124.429 E17.36438
G1 X122.556 Y124.093 E17.39956
G1 X122.947 Y123.938 E17.41355
G1 X123.74 Y123.589 E17.44237
G1 X124.155 Y123.38 E17.45782
G1 X124.986 Y122.909 E17.48959
G1 X125.527 Y122.564 E17.51093
